material/.icons/material/format-header-5.svg

<svg xmlns="http://www.w3.org/2000/svg" viewBox="0 0 24 24"><path d="M3 4h2v6h4V4h2v14H9v-6H5v6H3V4m12 0h5v2h-5v4h2a4 4 0 014 4 4 4 0 01-4 4h-2a2 2 0 01-2-2v-1h2v1h2a2 2 0 002-2 2 2 0 00-2-2h-2a2 2 0 01-2-2V6a2 2 0 012-2z"/></svg>

<?xml version="1.0" encoding="UTF-8"?><!DOCTYPE svg PUBLIC "-//W3C//DTD SVG 1.1//EN" "http://www.w3.org/Graphics/SVG/1.1/DTD/svg11.dtd"><svg xmlns="http://www.w3.org/2000/svg" xmlns:xlink="http://www.w3.org/1999/xlink" version="1.1" id="mdi-format-header-5" width="24" height="24" viewBox="0 0 24 24"><path d="M3,4H5V10H9V4H11V18H9V12H5V18H3V4M15,4H20V6H15V10H17A4,4 0 0,1 21,14A4,4 0 0,1 17,18H15A2,2 0 0,1 13,16V15H15V16H17A2,2 0 0,0 19,14A2,2 0 0,0 17,12H15A2,2 0 0,1 13,10V6A2,2 0 0,1 15,4Z" /></svg>
